; generated by PrusaSlicer 2.9.2 on 2025-04-22 at 13:18:48 UTC


;
;
; 

; external perimeters extrusion width = 0.60mm
; perimeters extrusion width = 0.50mm
; infill extrusion width = 0.50mm
; solid infill extrusion width = 0.50mm
; top infill extrusion width = 0.45mm
; first layer extrusion width = 0.42mm

M73 P0 R86
M73 Q0 S86
M201 X1000 Y1000 Z200 E5000 ; sets maximum accelerations, mm/sec^2
M203 X200 Y200 Z12 E120 ; sets maximum feedrates, mm / sec
M204 S1250 T1250 ; sets acceleration (S) and retract acceleration (R), mm/sec^2
M205 X8.00 Y8.00 Z0.40 E4.50 ; sets the jerk limits, mm/sec
M205 S0 T0 ; sets the minimum extruding and travel feed rate, mm/sec

; printing object baton_cap_2-BodyChamfer id:0 copy 0
; stop printing object baton_cap_2-BodyChamfer id:0 copy 0

;TYPE:Custom
M862.3 P "MK3S" ; printer model check
M862.1 P0.4 ; nozzle diameter check
M115 U3.13.3 ; tell printer latest fw version
G90 ; use absolute coordinates
M83 ; extruder relative mode
M104 S230 ; set extruder temp
M140 S50 ; set bed temp
M190 S50 ; wait for bed temp
M109 S230 ; wait for extruder temp
G28 W ; home all without mesh bed level
G80 X100.974 Y80.9796 W48.0527 H48.0408 ; mesh bed levelling

G1 Z0.2 F720
G1 Y-3 F1000 ; go outside print area
G92 E0
G1 X60 E9 F1000 ; intro line
G1 X100 E12.5 F1000 ; intro line

G92 E0
M221 S95

; Don't change E values below. Excessive value can damage the printer.

M907 E538 ; set extruder motor current
G21 ; set units to millimeters
G90 ; use absolute coordinates
M83 ; use relative distances for extrusion
M900 K0 ; Filament gcode
M107
;LAYER_CHANGE
;Z:0.2
;HEIGHT:0.2
G1 E-1 F2100
M73 P0 R85
G1 Z.2 F720
G1 X106.774 Y89.636 F10800
G1 Z.2 F720
G1 E1 F1500
M204 S800
;TYPE:Skirt/Brim
;WIDTH:0.42
G1 F1200
G1 X108.395 Y87.897 E.08199
G1 X110.18 Y86.329 E.08194
G1 X112.113 Y84.946 E.08198
G1 X114.174 Y83.762 E.08198
G1 X116.342 Y82.79 E.08194
G1 X118.596 Y82.038 E.08195
G1 X120.914 Y81.515 E.08196
G1 X123.273 Y81.225 E.08197
G1 X125.649 Y81.171 E.08197
G1 X128.018 Y81.354 E.08195
G1 X130.358 Y81.772 E.08198
G1 X132.644 Y82.421 E.08196
G1 X134.854 Y83.294 E.08195
G1 X136.966 Y84.383 E.08196
G1 X138.959 Y85.677 E.08196
G1 X140.732 Y87.091 E.07822
G1 X142.437 Y88.746 E.08195
G1 X143.969 Y90.563 E.08197
G1 X145.312 Y92.524 E.08198
G1 X146.454 Y94.608 E.08196
G1 X147.382 Y96.796 E.08197
G1 X148.087 Y99.065 E.08195
G1 X148.563 Y101.393 E.08195
G1 X148.806 Y103.757 E.08196
G1 X148.811 Y106.134 E.08198
G1 X148.58 Y108.499 E.08196
G1 X148.114 Y110.829 E.08195
G1 X147.419 Y113.102 E.08198
G1 X146.501 Y115.294 E.08196
G1 X145.369 Y117.383 E.08195
G1 X144.035 Y119.35 E.08197
G1 X142.511 Y121.174 E.08198
G1 X141.083 Y122.588 E.06931
G1 X139.82 Y123.671 E.05738
G1 X137.887 Y125.054 E.08198
G1 X135.827 Y126.238 E.08195
G1 X133.658 Y127.21 E.08198
G1 X131.404 Y127.962 E.08195
G1 X129.086 Y128.485 E.08196
G1 X126.727 Y128.775 E.08197
G1 X124.351 Y128.829 E.08197
G1 X121.982 Y128.646 E.08195
G1 X119.642 Y128.228 E.08198
G1 X117.356 Y127.579 E.08196
G1 X115.146 Y126.706 E.08195
G1 X113.034 Y125.617 E.08196
G1 X111.041 Y124.323 E.08196
G1 X109.268 Y122.909 E.07822
G1 X107.563 Y121.254 E.08195
G1 X106.031 Y119.437 E.08197
G1 X104.688 Y117.476 E.08198
G1 X103.546 Y115.392 E.08196
G1 X102.618 Y113.204 E.08197
G1 X101.913 Y110.935 E.08195
G1 X101.437 Y108.607 E.08195
G1 X101.194 Y106.243 E.08196
G1 X101.189 Y103.866 E.08198
G1 X101.42 Y101.501 E.08196
G1 X101.727 Y99.866 E.05738
G1 X102.237 Y97.921 E.06935
M73 Q0 S85
G1 X103.055 Y95.69 E.08196
G1 X104.091 Y93.551 E.08197
G1 X105.335 Y91.527 E.08194
G1 X106.738 Y89.683 E.07991
M204 S1000
G1 E-1 F2100
; printing object baton_cap_2-BodyChamfer id:0 copy 0
G1 X142.829 Y114.732 F10800
G1 E1 F1500
M204 S800
;TYPE:Perimeter
;WIDTH:0.419999
G1 F1200
G1 X142.333 Y115.592 E.03424
G1 X141.783 Y116.443 E.03495
G1 X141.192 Y117.265 E.03492
G1 X140.56 Y118.057 E.03495
G1 X139.89 Y118.816 E.03492
G1 X139.183 Y119.541 E.03493
G1 X138.441 Y120.23 E.03492
G1 X137.665 Y120.881 E.03493
G1 X136.857 Y121.493 E.03496
G1 X136.021 Y122.063 E.0349
G1 X135.156 Y122.591 E.03495
G1 X134.267 Y123.076 E.03493
G1 X133.354 Y123.515 E.03494
G1 X132.421 Y123.909 E.03493
G1 X131.469 Y124.255 E.03494
G1 X130.501 Y124.553 E.03493
G1 X129.52 Y124.803 E.03492
G1 X128.527 Y125.004 E.03494
G1 X127.526 Y125.155 E.03491
G1 X126.518 Y125.256 E.03494
G1 X125.506 Y125.306 E.03495
G1 X124.494 Y125.306 E.0349
G1 X123.482 Y125.256 E.03495
G1 X122.474 Y125.155 E.03494
G1 X121.473 Y125.004 E.03491
G1 X120.48 Y124.803 E.03494
G1 X119.499 Y124.553 E.03492
G1 X118.531 Y124.255 E.03493
G1 X117.579 Y123.909 E.03494
G1 X116.646 Y123.515 E.03493
G1 X115.733 Y123.076 E.03494
G1 X114.844 Y122.591 E.03493
G1 X113.979 Y122.063 E.03495
G1 X113.143 Y121.493 E.0349
G1 X112.335 Y120.881 E.03496
G1 X111.559 Y120.23 E.03493
G1 X110.817 Y119.541 E.03492
G1 X110.11 Y118.816 E.03493
G1 X109.44 Y118.057 E.03492
G1 X108.808 Y117.265 E.03495
G1 X108.217 Y116.443 E.03492
G1 X107.667 Y115.592 E.03495
G1 X107.161 Y114.715 E.03492
G1 X106.699 Y113.813 E.03495
G1 X106.282 Y112.89 E.03493
G1 X105.912 Y111.947 E.03494
G1 X105.59 Y110.987 E.03492
G1 X105.315 Y110.012 E.03494
G1 X105.09 Y109.025 E.03491
G1 X104.914 Y108.027 E.03495
G1 X104.788 Y107.022 E.03493
G1 X104.713 Y106.012 E.03493
G1 X104.687 Y105 E.03492
G1 X104.713 Y103.988 E.03492
G1 X104.788 Y102.978 E.03493
G1 X104.914 Y101.973 E.03493
G1 X105.09 Y100.975 E.03495
G1 X105.315 Y99.988 E.03491
G1 X105.59 Y99.013 E.03494
G1 X105.912 Y98.053 E.03492
G1 X106.282 Y97.11 E.03494
G1 X106.699 Y96.187 E.03493
G1 X107.161 Y95.285 E.03495
G1 X107.667 Y94.408 E.03492
G1 X108.217 Y93.557 E.03495
G1 X108.808 Y92.735 E.03492
G1 X109.44 Y91.943 E.03495
G1 X110.11 Y91.184 E.03492
G1 X110.817 Y90.459 E.03493
G1 X111.559 Y89.77 E.03492
G1 X112.335 Y89.119 E.03493
G1 X113.143 Y88.507 E.03496
G1 X113.979 Y87.937 E.0349
G1 X114.844 Y87.409 E.03495
G1 X115.733 Y86.924 E.03493
G1 X116.646 Y86.485 E.03494
G1 X117.579 Y86.091 E.03493
G1 X118.531 Y85.745 E.03494
G1 X119.499 Y85.447 E.03493
G1 X120.48 Y85.197 E.03492
G1 X121.473 Y84.996 E.03494
G1 X122.474 Y84.845 E.03491
G1 X123.482 Y84.744 E.03494
G1 X124.492 Y84.694 E.03488
G1 X125.61 Y84.699 E.03856
G1 X126.518 Y84.744 E.03136
G1 X127.526 Y84.845 E.03494
G1 X128.527 Y84.996 E.03491
G1 X129.52 Y85.197 E.03494
G1 X130.501 Y85.447 E.03492
G1 X131.469 Y85.745 E.03493
G1 X132.421 Y86.091 E.03494
G1 X133.354 Y86.485 E.03493
G1 X134.267 Y86.924 E.03494
G1 X135.156 Y87.409 E.03493
G1 X136.021 Y87.937 E.03495
G1 X136.857 Y88.507 E.0349
G1 X137.665 Y89.119 E.03496
G1 X138.441 Y89.77 E.03493
G1 X139.183 Y90.459 E.03492
G1 X139.89 Y91.184 E.03493
G1 X140.56 Y91.943 E.03492
G1 X141.192 Y92.735 E.03495
G1 X141.783 Y93.557 E.03492
G1 X142.333 Y94.408 E.03495
G1 X142.839 Y95.285 E.03492
G1 X143.301 Y96.187 E.03495
G1 X143.718 Y97.11 E.03493
G1 X144.088 Y98.053 E.03494
G1 X144.41 Y99.013 E.03492
G1 X144.685 Y99.988 E.03494
G1 X144.91 Y100.975 E.03491
G1 X145.086 Y101.973 E.03495
G1 X145.212 Y102.978 E.03493
G1 X145.287 Y103.988 E.03493
G1 X145.313 Y105 E.03492
G1 X145.3 Y105.506 E.01746
G1 X145.287 Y106.012 E.01746
G1 X145.212 Y107.022 E.03493
G1 X145.086 Y108.027 E.03493
G1 X144.91 Y109.025 E.03495
G1 X144.685 Y110.012 E.03491
G1 X144.41 Y110.987 E.03494
G1 X144.088 Y111.947 E.03492
G1 X143.718 Y112.89 E.03494
G1 X143.301 Y113.813 E.03493
G1 X142.857 Y114.679 E.03356
M204 S1000
G1 X143.165 Y114.904 F10800
M204 S800
;TYPE:External perimeter
G1 F1200
G1 X142.654 Y115.788 E.03522
G1 X142.095 Y116.655 E.03558
G1 X141.493 Y117.493 E.03559
G1 X140.849 Y118.299 E.03558
G1 X140.167 Y119.073 E.03558
G1 X139.446 Y119.811 E.03558
G1 X138.69 Y120.513 E.03558
G1 X137.9 Y121.176 E.03557
G1 X137.078 Y121.799 E.03557
G1 X136.225 Y122.38 E.0356
G1 X135.345 Y122.918 E.03557
G1 X134.439 Y123.411 E.03557
G1 X133.509 Y123.859 E.0356
G1 X132.559 Y124.26 E.03556
G1 X131.589 Y124.613 E.0356
G1 X130.604 Y124.917 E.03555
G1 X129.604 Y125.171 E.03558
G1 X128.593 Y125.376 E.03558
G1 X127.573 Y125.529 E.03557
G1 X126.546 Y125.632 E.0356
G1 X125.516 Y125.683 E.03557
G1 X124.484 Y125.683 E.03559
G1 X123.454 Y125.632 E.03557
G1 X122.427 Y125.529 E.0356
G1 X121.407 Y125.376 E.03557
G1 X120.396 Y125.171 E.03558
G1 X119.396 Y124.917 E.03558
G1 X118.411 Y124.613 E.03555
G1 X117.441 Y124.26 E.0356
G1 X116.491 Y123.859 E.03556
G1 X115.561 Y123.411 E.0356
G1 X114.655 Y122.918 E.03557
G1 X113.775 Y122.38 E.03557
G1 X112.922 Y121.799 E.0356
G1 X112.1 Y121.176 E.03557
G1 X111.31 Y120.513 E.03557
G1 X110.554 Y119.811 E.03558
G1 X109.833 Y119.073 E.03558
G1 X109.151 Y118.299 E.03558
G1 X108.507 Y117.493 E.03558
G1 X107.905 Y116.655 E.03559
G1 X107.346 Y115.788 E.03558
G1 X106.83 Y114.895 E.03557
G1 X106.359 Y113.977 E.03559
G1 X105.935 Y113.037 E.03557
G1 X105.558 Y112.076 E.0356
G1 X105.229 Y111.098 E.03559
G1 X104.95 Y110.105 E.03557
G1 X104.72 Y109.1 E.03556
G1 X104.541 Y108.084 E.03558
G1 X104.413 Y107.06 E.03559
G1 X104.336 Y106.031 E.03559
G1 X104.31 Y105 E.03557
G1 X104.336 Y103.969 E.03557
G1 X104.413 Y102.94 E.03559
G1 X104.541 Y101.916 E.03559
G1 X104.72 Y100.9 E.03558
G1 X104.95 Y99.895 E.03556
G1 X105.229 Y98.902 E.03557
G1 X105.558 Y97.924 E.03559
G1 X105.935 Y96.963 E.0356
G1 X106.359 Y96.023 E.03557
G1 X106.83 Y95.105 E.03559
G1 X107.346 Y94.212 E.03557
G1 X107.905 Y93.345 E.03558
G1 X108.507 Y92.507 E.03559
G1 X109.151 Y91.701 E.03558
G1 X109.833 Y90.927 E.03558
G1 X110.554 Y90.189 E.03558
G1 X111.31 Y89.487 E.03558
G1 X112.1 Y88.824 E.03557
G1 X112.922 Y88.201 E.03557
G1 X113.775 Y87.62 E.0356
G1 X114.655 Y87.082 E.03557
G1 X115.561 Y86.589 E.03557
G1 X116.491 Y86.141 E.0356
G1 X117.441 Y85.74 E.03556
G1 X118.411 Y85.387 E.0356
G1 X119.396 Y85.083 E.03555
G1 X120.396 Y84.829 E.03558
G1 X121.407 Y84.624 E.03558
G1 X122.427 Y84.471 E.03557
G1 X123.454 Y84.368 E.0356
G1 X124.484 Y84.317 E.03557
G1 X125.62 Y84.322 E.03918
G1 X126.546 Y84.368 E.03198
G1 X127.573 Y84.471 E.0356
G1 X128.593 Y84.624 E.03557
G1 X129.604 Y84.829 E.03558
G1 X130.604 Y85.083 E.03558
G1 X131.589 Y85.387 E.03555
G1 X132.559 Y85.74 E.0356
G1 X133.509 Y86.141 E.03556
G1 X134.439 Y86.589 E.0356
G1 X135.345 Y87.082 E.03557
G1 X136.225 Y87.62 E.03557
G1 X137.078 Y88.201 E.0356
G1 X137.9 Y88.824 E.03557
G1 X138.69 Y89.487 E.03557
G1 X139.446 Y90.189 E.03558
G1 X140.167 Y90.927 E.03558
G1 X140.849 Y91.701 E.03558
G1 X141.493 Y92.507 E.03558
G1 X142.095 Y93.345 E.03559
G1 X142.654 Y94.212 E.03558
G1 X143.17 Y95.105 E.03557
G1 X143.641 Y96.023 E.03559
G1 X144.065 Y96.963 E.03557
G1 X144.442 Y97.924 E.0356
G1 X144.771 Y98.902 E.03559
G1 X145.05 Y99.895 E.03557
G1 X145.28 Y100.9 E.03556
G1 X145.459 Y101.916 E.03558
G1 X145.587 Y102.94 E.03559
G1 X145.664 Y103.969 E.03559
G1 X145.69 Y105 E.03557
G1 X145.677 Y105.515 E.01777
G1 X145.664 Y106.031 E.0178
G1 X145.587 Y107.06 E.03559
G1 X145.459 Y108.084 E.03559
G1 X145.28 Y109.1 E.03558
G1 X145.05 Y110.105 E.03556
G1 X144.771 Y111.098 E.03557
G1 X144.442 Y112.076 E.03559
G1 X144.065 Y113.037 E.0356
G1 X143.641 Y113.977 E.03557
G1 X143.193 Y114.851 E.03387
M204 S1000
G1 X142.995 Y115.198 F10800
G1 E-1 F2100
G1 X137.289 Y89.047 F10800
G1 E1 F1500
M204 S800
;TYPE:Solid infill
;WIDTH:0.423302
G1 F1200
G1 X139.641 Y91.415 E.11612
G1 X140.3 Y92.161 E.03463
G1 X140.921 Y92.94 E.03466
G1 X141.594 Y93.89 E.04051
G1 X136.118 Y88.414 E.26944
G1 X135.836 Y88.222 E.01187
G1 X134.728 Y87.562 E.04487
G1 X142.441 Y95.276 E.37953
G1 X143.022 Y96.394 E.04384
G1 X133.615 Y86.987 E.46285
G1 X133.215 Y86.794 E.01545
G1 X132.644 Y86.554 E.02155
G1 X143.452 Y97.362 E.53179
G1 X143.793 Y98.241 E.0328
G1 X131.767 Y86.214 E.59174
G1 X130.956 Y85.942 E.02976
G1 X144.065 Y99.051 E.645
G1 X144.28 Y99.804 E.02725
G1 X130.195 Y85.719 E.69302
G1 X129.473 Y85.535 E.02592
G1 X144.458 Y100.519 E.73728
G1 X144.606 Y101.206 E.02445
G1 X128.797 Y85.397 E.77785
G1 X128.144 Y85.281 E.02307
G1 X144.721 Y101.859 E.81566
G1 X144.808 Y102.483 E.02192
G1 X127.51 Y85.186 E.85109
G1 X126.911 Y85.125 E.02095
G1 X144.88 Y103.094 E.88413
G1 X144.924 Y103.675 E.02027
G1 X126.323 Y85.074 E.91523
G1 X125.757 Y85.046 E.01972
G1 X144.954 Y104.244 E.94457
G1 X144.968 Y104.795 E.01918
G1 X125.209 Y85.036 E.9722
G1 X124.669 Y85.034 E.01879
G1 X144.965 Y105.33 E.99862
G1 X144.952 Y105.855 E.01827
G1 X124.148 Y85.051 E1.02362
G1 X123.635 Y85.076 E.01787
G1 X144.921 Y106.362 E1.04734
G1 X144.883 Y106.862 E.01745
G1 X123.14 Y85.119 E1.06982
G1 X122.651 Y85.168 E.0171
G1 X144.829 Y107.346 E1.09122
G1 X144.769 Y107.824 E.01676
M73 P1 R85
M73 Q1 S85
G1 X122.178 Y85.233 E1.11155
G1 X121.71 Y85.303 E.01646
G1 X144.695 Y108.288 E1.13093
G1 X144.615 Y108.745 E.01614
G1 X121.255 Y85.386 E1.14936
G1 X120.808 Y85.477 E.01587
G1 X144.524 Y109.192 E1.16687
G1 X144.424 Y109.63 E.01563
G1 X120.369 Y85.575 E1.18358
G1 X119.94 Y85.684 E.0154
G1 X144.318 Y110.062 E1.19947
G1 X144.2 Y110.482 E.01518
G1 X119.514 Y85.797 E1.2146
G1 X119.103 Y85.924 E.01497
M73 P1 R84
G1 X144.081 Y110.902 E1.22899
G1 X143.946 Y111.304 E.01475
G1 X118.692 Y86.05 E1.24257
G1 X118.295 Y86.192 E.01467
G1 X143.81 Y111.707 E1.25541
G1 X143.664 Y112.098 E.01452
G1 X117.901 Y86.335 E1.26762
G1 X117.515 Y86.487 E.01443
G1 X143.512 Y112.485 E1.27916
G1 X143.356 Y112.866 E.01432
G1 X117.136 Y86.646 E1.2901
G1 X116.759 Y86.807 E.01426
M73 Q1 S84
G1 X143.189 Y113.237 E1.30044
G1 X143.022 Y113.608 E.01416
G1 X116.396 Y86.982 E1.31008
G1 X116.033 Y87.157 E.01402
G1 X142.842 Y113.966 E1.31908
G1 X142.659 Y114.321 E.0139
G1 X115.679 Y87.341 E1.3275
G1 X115.33 Y87.53 E.01381
G1 X142.472 Y114.672 E1.33547
G1 X142.275 Y115.013 E.0137
G1 X114.983 Y87.721 E1.34285
G1 X114.649 Y87.925 E.01362
G1 X142.078 Y115.354 E1.34959
G1 X141.869 Y115.683 E.01356
G1 X114.315 Y88.129 E1.35574
G1 X113.989 Y88.341 E.01353
G1 X141.658 Y116.01 E1.3614
G1 X141.444 Y116.333 E.01348
G1 X113.669 Y88.559 E1.36659
G1 X113.349 Y88.777 E.01347
G1 X141.219 Y116.646 E1.37126
G1 X140.994 Y116.959 E.01341
G1 X113.043 Y89.009 E1.37525
G1 X112.737 Y89.24 E.01334
G1 X140.759 Y117.263 E1.37879
G1 X140.521 Y117.562 E.0133
G1 X112.436 Y89.477 E1.38187
G1 X112.143 Y89.723 E.01331
G1 X140.281 Y117.86 E1.38445
G1 X140.029 Y118.146 E.01326
M73 P2 R84
M73 Q2 S84
G1 X111.851 Y89.968 E1.38644
G1 X111.569 Y90.224 E.01325
G1 X139.777 Y118.432 E1.38792
G1 X139.518 Y118.711 E.01324
G1 X111.29 Y90.483 E1.3889
G1 X111.013 Y90.744 E.01324
G1 X139.253 Y118.984 E1.38949
G1 X138.987 Y119.256 E.01324
G1 X110.747 Y91.016 E1.38949
G1 X110.482 Y91.289 E.01324
G1 X138.71 Y119.517 E1.3889
G1 X138.431 Y119.776 E.01324
G1 X110.223 Y91.568 E1.38792
G1 X109.971 Y91.854 E.01326
G1 X138.149 Y120.032 E1.38644
G1 X137.856 Y120.277 E.01329
G1 X109.719 Y92.14 E1.38443
G1 X109.479 Y92.438 E.01331
G1 X137.564 Y120.523 E1.38187
G1 X137.263 Y120.76 E.01333
M73 P2 R83
G1 X109.241 Y92.737 E1.37879
G1 X109.006 Y93.041 E.01337
G1 X136.957 Y120.992 E1.37527
G1 X136.65 Y121.223 E.01337
G1 X108.781 Y93.354 E1.37124
G1 X108.556 Y93.667 E.01341
G1 X136.331 Y121.441 E1.36659
G1 X136.011 Y121.659 E.01347
G1 X108.342 Y93.99 E1.3614
G1 X108.13 Y94.317 E.01356
M73 Q2 S83
G1 X135.684 Y121.871 E1.35574
G1 X135.351 Y122.075 E.01359
G1 X107.922 Y94.646 E1.34959
G1 X107.725 Y94.987 E.0137
G1 X135.017 Y122.279 E1.34285
G1 X134.67 Y122.47 E.01378
G1 X107.528 Y95.328 E1.33547
G1 X107.341 Y95.679 E.01384
G1 X134.321 Y122.66 E1.32752
G1 X133.967 Y122.843 E.01386
G1 X107.158 Y96.034 E1.31908
G1 X106.978 Y96.392 E.01394
G1 X133.604 Y123.018 E1.31008
G1 X133.241 Y123.193 E.01402
G1 X106.811 Y96.763 E1.30044
G1 X106.644 Y97.134 E.01416
G1 X132.864 Y123.354 E1.2901
G1 X132.485 Y123.513 E.0143
G1 X106.488 Y97.516 E1.27913
G1 X106.336 Y97.902 E.01443
G1 X132.099 Y123.665 E1.26762
G1 X131.704 Y123.808 E.01462
M73 P3 R83
M73 Q3 S83
G1 X106.19 Y98.293 E1.25539
G1 X106.054 Y98.696 E.0148
G1 X131.308 Y123.95 E1.24257
G1 X130.897 Y124.076 E.01496
G1 X105.919 Y99.099 E1.22897
G1 X105.8 Y99.518 E.01515
G1 X130.486 Y124.203 E1.2146
G1 X130.06 Y124.316 E.01533
G1 X105.682 Y99.938 E1.19947
G1 X105.576 Y100.37 E.01548
G1 X129.631 Y124.425 E1.18358
G1 X129.192 Y124.523 E.01565
G1 X105.476 Y100.808 E1.16687
